X:1
T:Title
%%score ( 1 2 ) { 3 | 4 }
L:1/8
Q:1/4=110
M:4/4
K:Ab
V:1 treble nm="Grand Piano, Soprano"
V:2 treble 
V:3 bass nm="Choir Pad, O How He Loves Me"
V:4 bass 
V:1
 [CE]2 [CE]2 [CA]2 [Ec]2- | [Ec][Ec] [FB]2 [FA]2 [DF]2- | [DF]2 [CE][EA]- [EA]2 [EA]2 | %3
w: By~Henry~Lake~Gilmour * * *|||
 [=Dc]2 [Ec]2 [EB]4 | [DE]2 [CE]2 [CA]2 [Ec]2- | [Ec][Ec] [FB]2 [FA]2 [DF]2- | %6
w: |||
 [DF]2 [CE][EA]- [EA]2 [EG]2 | z8 | z2 .c2 z4 | z8 | z2 [GB][Bd]- [Bd]2 [Bd]2- | %11
w: |||||
 [Bd][GB] [Bd]2 [Ac]4 | [Ae]2 [Ae]2 [Ec]2 [Ec]2- | [Ec][Ec] [FB]2 [FA]2 [DF]2- | %14
w: |||
 [DF]2 [CE][EA]- [EA]2 [EG]2 | [EB]2 [EB]2 [EA]4- | [EA]4 z4 |] %17
w: |||
V:2
 x8 | x8 | x8 | x8 | x8 | x8 | x8 | [EB]2 [EB]2 [EA]4- | [EA]2 A-[Ae]- [Ae]2 [Ae]2- | %9
 [Ae][Ac] [Ae]2 [Gd]4 | x8 | x8 | x8 | x8 | x8 | x8 | x8 |] %17
V:3
 A,2 A,2 E,2 A,2- | A,A, A,2 A,2 A,2- | A,2 A,[K:treble]C- C2 C2 | A,2 A,2[K:bass] G,4 | %4
 G,2 A,2 E,2 A,2- | A,A, A,2 A,2 A,2- | A,2 A,[K:treble]C- C2 B,2 | D2 D2 C4- | C2 EC- C2 C2- | %9
 CE C2 B,4 | z2 E4 E2- | EE E2 E4 | C2 C2[K:bass] A,2 A,2- | A,A, A,2 A,2 A,2- | %14
 A,2 A,[K:treble]C- C2 B,2 | D2 D2 C4- | C4 z4 |] %17
V:4
 A,,2 A,,2 A,,2 A,,2- | A,,A,, D,2 D,2 D,2- | D,2 z2 z2 A,2 | F,2 E,2 E,4 | E,2 A,,2 A,,2 A,,2- | %5
 A,,A,, D,2 D,2 D,2- | D,2 E,4 E,2 | E,2 E,2 A,,4- | A,,2 A,4 A,2- | A,A, E,2 E,4 | z2 E,4 E,2- | %11
 E,E, G,2 A,4 | A,2 A,2 z2 A,,2- | A,,A,, D,2 D,2 D,2- | D,2 E,4 E,2 | E,2 E,2 A,,4- | A,,4 z4 |] %17

